X:1
T:CHANTICLEER RAG
T:CHANTICLEER RAG
T:By RICHARD GRANT.
T:Copyright 1910 by McKinley Music Co.
T:Copyright 1910 by McKinley Music Co.
T:Copyright 1910 by McKinley Music Co.
T:Copyright 1910 by McKinley Music Co.
C:By RICHARD GRANT.
Z:Copyright 1910 by McKinley Music Co.
%%score { ( 1 3 ) | 2 }
L:1/8
Q:1/4=90
M:2/4
K:C
V:1 treble nm="Piano" snm="Pno."
V:3 treble 
V:2 bass 
V:1
!f! (E/F/^F/G/-) G/^F/G | e/f/^f/g/- g/^f/g/ x/ | [dfb]/[df^a]/[dfb] [df=a][df_a] | %3
 !>![dfg] z !>![B,FG] z |:!p! [CE]/[DF]/[^D^F]/[EG]/- [EG]/G/[Ge] | %5
 [Fd]/[E^c]/[Fd]/[Ge]/ [E=c]c/B/ | [FA]/^G/A/[Ac]/- [Ac]/c/[_Ad] | [Ge]2- [Ge]G | %8
 [CE]/[DF]/[^D^F]/[EG]/- [EG]/G/[Ge] | [Fd]/[E^c]/[Fd]/[Ge]/ [E=c]c/B/ | %10
 [^FA]/^G/[FA]/[Ac]/- [Ac]/c/[Fce] | [=FBd]2- [FBd]G | [CE]/[DF]/[^D^F]/[EG]/- [EG]/G/[Ge] | %13
 [=Fd]/[E^c]/[Fd]/[Ge]/ [E=c]c/B/ | [=FA]/^G/A/[Ac]/- [Ac]/c/[Ad] | [^Ge]2- [Ge]e | %16
 [A^cf]e/[Acf]/- [Acf]/e/d/c/ | [^F=ce]d/[ce]/- [ce]/d/c/A/ | G/A/B/[GBe]/- [GBe]/B/[=FBd] |1 %19
 [EGc] z !>![B,FG]2 :|2 [EGc] z !>![Bfg]2 |: %21
!f! (([^A^c]/[Bd]/)).[Bd]/.[Bd]/ (([Ac]/[Bd]/))[Bd]/[Bd]/ | %22
 (([^A^c]/[Bd]/))[Bd]/[Bd]/ [Bg]/f/e/d/ | (([c^d]/[ce]/)).[ce]/.[ce]/ (([cd]/[ce]/)).[ce]/.[ce]/ | %24
 (([c^d]/[ce]/))[ce]/[ce]/ [cea][ceg] | [c^f]e/[cf]/- [cf][cf] | [B=f]e/[Bf]/- [Bf][Bf] | [ce]4- | %28
 [ce] z !>![Bfg]2 | (([^A^c]/[Bd]/)).[Bd]/.[Bd]/ (([Ac]/[Bd]/)).[Bd]/.[Bd]/ | %30
 (([^A^c]/[Bd]/)).[Bd]/.[Bd]/ [Bg]/f/e/d/ | %31
 (([c^d]/[ce]/)).[ce]/.[ce]/ (([cd]/[ce]/)).[ce]/.[ce]/ | (([c^d]/[ce]/))[ce]/[ce]/ [cea][ceg] | %33
 [c^f]e/[cf]/- [cf][cf] | [B=f]e/[Bf]/- [Bf][FBe] |1 [Ec]4- | [Ec] z !>![Bfg]2 :|2 [Ec]4- | %38
 [Ec] z !>![cec'] z ||[K:F][M:2/4]!p! [Bc][Bd]/[Be]/- [Be]/[Bd]/[Bc] | %40
 [ce][df]/[eg]/- [eg]/[df]/[ce] | [eg][ea]/[eb]/- [eb]/[ea]/[eg] | [ec'] z z (3C/D/E/ || %43
!p! F[Ad]/[Ac]/- [Ac]/A/G/F/ | E[Be]/[Bd]/- [Bd]2 | [Bd]^c/[Be]/- [Be]/d/=c/B/ | %46
 A[Ac]/[Af]/- [Af]2 |{CDE} F[Ad]/[Ac]/- [Ac]/A/G/F/ | E[Be]/[Bd]/- [Bd]2 | [F=B][FA] [FG][FB] | %50
 [Ec]/[Fd]/[^F^d]/[Ge]/- [Ge](3C/D/E/ | F[Ad]/[Ac]/- [Ac]/A/G/F/ | E[Be]/[Bd]/- [Bd]2 | %53
 [Bd]^c/[Be]/- [Be]/d/=c/B/ | A[Ac]/[Af]/- [Af](3c/d/e/ | [Acf][Acf] [cd^f][cdf] | %56
 [=Bg]/^f/[Bg]/[Bd]/- [Bd][Bd] | [_Be]/^d/e/[cea]/- [cea]/e/[Bg] | [Acf] z (F>E) ||!f! D>E FG | %60
 A<B A z | [^CEA]/G/[CEA]/[CEG]/- [CEG]/F/G | [^CEA] z [^cea] z |!f! =C>D EF | G<_A G z | %65
 [FG]A/[F=B]/- [FB]/[FA]/[FG] | [EGc] z !>!C (3C/D/E/ || F[Ad]/[Ac]/- [Ac]/A/G/F/ | %68
 E[Be]/[Bd]/- [Bd]2 | [Bd]^c/[Be]/- [Be]/d/=c/B/ | A[Ac]/[Af]/- [Af]2 | %71
{CDE} F[Ad]/[Ac]/- [Ac]/A/G/F/ | E[Be]/[Bd]/- [Bd]2 | [F=B][FA] [FG][FB] | %74
 [Ec]/[Fd]/[^F^d]/[Ge]/- [Ge](3C/D/E/ | F[Ad]/[Ac]/- [Ac]/A/G/F/ | E[Be]/[Bd]/- [Bd]2 | %77
 [Bd]^c/[Be]/- [Be]/d/=c/B/ | A[Ac]/[Af]/- [Af](3c/d/e/ | [Acf][Acf] [cd^f][cdf] | %80
 [=Bg]/^f/[Bg]/[Bd]/- [Bd][Bd] | [_Be]/^d/e/[cea]/- [cea]/e/[Bg] | [Acf] z [Acf] z |] %83
V:2
 (C/D/^D/E/-) E/^D/E |"^L.H." x4 | x4 | z z !>![G,,G,] z |: C,[E,G,C] G,,[E,G,C] | %5
 D,[F,G,B,] [E,G,C]C, | F,[A,C] F,[_A,C] | C,[E,G,C] [E,G,C]G,, | C,[E,G,] G,,[E,G,] | %9
 D,[F,G,B,] [E,G,C]C, | D,[^F,C] D,[F,C] | [G,,G,][=F,G,B,] [F,G,B,]G,, | C,[E,G,C] G,,[E,G,C] | %13
 D,[F,G,B,] [E,G,C]C, | F,[A,C] F,[A,C] | E,[^G,B,] [G,B,]E, | A,,[G,A,] A,,[G,A,] | %17
 D,[^F,A,] D,[F,A,] | G,,[=F,G,] G,,[F,G,] |1 [C,C] z !>![G,,G,]2 :|2 [C,C] z !>![G,,G,]2 |: %21
 G,,[F,G,B,] G,,[F,G,B,] | G,,[F,G,B,] [F,G,B,]G,, | C,[E,G,C] C,[E,G,C] | C,[E,G,C] [E,G,C]G,, | %25
 D,[^F,A,] D,[F,A,] | G,,[=F,G,] G,,[F,G,] | C,[E,G,] z/ (E,/F,/^F,/ | G,) z !>![G,,G,]2 | %29
 G,,[F,G,B,] G,,[F,G,B,] | G,,[F,G,B,] [F,G,B,]G,, | C,[E,G,C] C,[E,G,C] | C,[E,G,C] [E,G,C]G,, | %33
 D,[^F,A,] D,[F,A,] | G,,[F,G,] G,,[F,G,] |1 [C,C]>(A, G,E, | C,) z !>![G,,G,]2 :|2 %37
 [C,C]>(A, G,E, | C,) z !>![C,,C,] z ||[K:F][M:2/4][K:treble] EF/G/- G/F/E | GA/B/- B/A/G | %41
 Bc/d/- d/c/B | c z[K:bass] C,, z || F,[A,C] (C,/C/B,/A,/ | G,)[B,C] [B,C]C, | G,[B,C] C,[B,C] | %46
 F,[A,C] [A,C]C, | F,[A,C] (C,/C/B,/A,/ | G,)[B,C] [B,C]C, | D,[G,=B,] G,,[G,B,] | %50
 C,[G,_B,C] [G,B,C] z | F,[A,C] (C,/C/B,/A,/ | G,)[B,C] [B,C]C, | G,[B,C] C,[B,C] | %54
 F,[A,C] [A,C] z | [F,,F,][F,,F,] [D,,D,][_A,,_A,] | [G,,G,][G,=B,] [G,B,] z | C,[E,G,] C,[E,G,] | %58
 [F,,F,] z (F,>E,) || D,>E, F,G, | A,<B, A, z | [A,,A,][A,,A,] [E,,E,][E,,E,] | [A,,A,] z A,, z | %63
 =C,>D, E,F, | G,<_A, G, z | =B,C/D/- D/C/B, | C z !>!C, z || F,[A,C] (C,/C/B,/A,/ | %68
 G,)[B,C] [B,C]C, | G,[B,C] C,[B,C] | F,[A,C] [A,C]C, | F,[A,C] (C,/C/B,/A,/ | G,)[B,C] [B,C]C, | %73
 D,[G,=B,] G,,[G,B,] | C,[G,_B,C] [G,B,C] z | F,[A,C] (C,/C/B,/A,/ | G,)[B,C] [B,C]C, | %77
 G,[B,C] C,[B,C] | F,[A,C] [A,C] z | [F,,F,][F,,F,] [D,,D,][_A,,_A,] | %80
 .[G,,G,]!>![G,=B,] !>![G,B,] z | C,[E,G,] C,[E,G,] | [F,,F,] z F,, z |] %83
V:3
 x4 | c/d/^d/e/- e/^d/e/ x/ | G^G A^A | B x3 |: x4 | x4 | x4 | x4 | x4 | x4 | x4 | x4 | x4 | x4 | %14
 x4 | x4 | x4 | x4 | x4 |1 x4 :|2 x4 |: x4 | x4 | x4 | x4 | x4 | x4 | x4 | x4 | x4 | x4 | x4 | x4 | %33
 x4 | x4 |1 x4 | x4 :|2 x4 | x4 ||[K:F][M:2/4] x4 | x4 | x4 | x4 || x4 | x4 | x4 | x4 | x4 | x4 | %49
 x4 | x4 | x4 | x4 | x4 | x4 | x4 | x4 | x4 | x4 || x4 | x4 | x4 | x4 | x4 | x4 | x4 | x4 || x4 | %68
 x4 | x4 | x4 | x4 | x4 | x4 | x4 | x4 | x4 | x4 | x4 | x4 | x4 | x4 | x4 |] %83

